**kern	**silbe	**harmony	**phrase	**leadinstrument	**rhyme	**timestamp	**harte
*ICvox	*	*M4/4	*	*	*	*	*M4/4
*VRlead	*	*	*	*	*	*	*
*Hstimme	*	*	*	*	*	*	*
*E:	*	*E:	*	*	*	*	*E:
*M4/4	*	*	*	*	*	*	*
*clefG2	*	*	*	*	*	*	*
r;	.	1r;	.	r	.	0	N.C.
=1	=1	=1	=1	=1	=1	=1	=1
*>Letter>A	*>Letter>A	*>Letter>A	*>Letter>A	*>Letter>A	*>Letter>A	*>Letter>A	*>Letter>A
*>Label>Intro	*>Label>Intro	*>Label>Intro	*>Label>Intro	*>Label>Intro	*>Label>Intro	*>Label>Intro	*>Label>Intro
1r	.	1C#m	newline	synthesizer	.	0.209	C#:5(b7)
=2	=2	=2	=2	=2	=2	=2	=2
1r	.	1C#m	.	synthesizer	.	1.925	C#:5(b7)
=3	=3	=3	=3	=3	=3	=3	=3
1r	.	1C#m	.	synthesizer	.	3.642	C#:5(b7)
=4	=4	=4	=4	=4	=4	=4	=4
1r	.	1C#m	.	synthesizer	.	5.358	C#:5(b7)
=5	=5	=5	=5	=5	=5	=5	=5
*>Letter>B	*>Letter>B	*>Letter>B	*>Letter>B	*>Letter>B	*>Letter>B	*>Letter>B	*>Letter>B
*>Label>Instrumental	*>Label>Instrumental	*>Label>Instrumental	*>Label>Instrumental	*>Label>Instrumental	*>Label>Instrumental	*>Label>Instrumental	*>Label>Instrumental
1r	.	1C#mm	newline	.	.	7.075	C#:min7
=6	=6	=6	=6	=6	=6	=6	=6
1r	.	1C#mm	.	.	.	8.802	C#:min7
=7	=7	=7	=7	=7	=7	=7	=7
1r	.	1C#mm	.	.	.	10.53	C#:min7
=8	=8	=8	=8	=8	=8	=8	=8
1r	.	1C#mm	.	.	.	12.257	C#:min7
=9	=9	=9	=9	=9	=9	=9	=9
1r	.	1C#Mm	newline	.	.	13.984	C#:7
=10	=10	=10	=10	=10	=10	=10	=10
1r	.	1C#Mm	.	.	.	15.708	C#:7
=11	=11	=11	=11	=11	=11	=11	=11
1r	.	1C#Mm	.	.	.	17.431	C#:7
=12	=12	=12	=12	=12	=12	=12	=12
1r	.	1C#Mm	.	.	.	19.155	C#:7
=13	=13	=13	=13	=13	=13	=13	=13
1r	.	1C#mm	newline	.	.	20.878	C#:min7
=14	=14	=14	=14	=14	=14	=14	=14
1r	.	1C#mm	.	.	.	22.591	C#:min7
=15	=15	=15	=15	=15	=15	=15	=15
1r	.	1C#mm	.	.	.	24.304	C#:min7
=16	=16	=16	=16	=16	=16	=16	=16
1r	.	1C#mm	.	.	.	26.017	C#:min7
=17	=17	=17	=17	=17	=17	=17	=17
1r	.	1C#Mm	newline	synthesizer	.	27.73	C#:7
=18	=18	=18	=18	=18	=18	=18	=18
1r	.	1C#Mm	.	synthesizer	.	29.461	C#:7
=19	=19	=19	=19	=19	=19	=19	=19
1r	.	1C#mm	.	synthesizer	.	31.193	C#:min7
=20	=20	=20	=20	=20	=20	=20	=20
1r	.	1C#mm	.	synthesizer	.	32.924	C#:min7
=21	=21	=21	=21	=21	=21	=21	=21
*>Letter>C	*>Letter>C	*>Letter>C	*>Letter>C	*>Letter>C	*>Letter>C	*>Letter>C	*>Letter>C
*>Label>Verse	*>Label>Verse	*>Label>Verse	*>Label>Verse	*>Label>Verse	*>Label>Verse	*>Label>Verse	*>Label>Verse
4r	.	1EM	newline	voice	.	34.656	E:maj
4g#	Here	.	.	.	.	.	.
8e	we	.	.	.	.	.	.
8g#	are	.	.	.	.	.	.
8r	.	.	.	.	.	.	.
[8a	hang-	.	.	.	.	.	.
=22	=22	=22	=22	=22	=22	=22	=22
8a]	_	1EM	.	voice	.	36.368	E:maj
8g#	-ing	.	.	.	.	.	.
8g#	on	.	.	.	.	.	.
8g#	to	.	.	.	.	.	.
4f#	strains	.	.	.	A	.	.
4e	of	.	.	.	.	.	.
=23	=23	=23	=23	=23	=23	=23	=23
4g#	greens	1C#m	.	voice	.	38.08	C#:min(9)
2r	.	.	.	.	.	.	.
8B	and	.	.	.	.	.	.
[8c#	blues	.	.	.	B	.	.
=24	=24	=24	=24	=24	=24	=24	=24
4c#]	_	1C#m	.	voice	.	39.791	C#:min(9)
2r	.	.	.	.	.	.	.
4r	.	.	.	.	.	.	.
=25	=25	=25	=25	=25	=25	=25	=25
4r	.	1EM	newline	voice	.	41.503	E:maj
8g#	Break	.	.	.	.	.	.
8g#	the	.	.	.	.	.	.
4g#	chain.	.	.	.	A	.	.
4g#	then	.	.	.	.	.	.
=26	=26	=26	=26	=26	=26	=26	=26
4a	we	1EM	.	voice	.	43.236	E:maj
4g#	break	.	.	.	.	.	.
8f#	down.	.	.	.	.	.	.
8e	_	.	.	.	.	.	.
8r	.	.	.	.	.	.	.
[8e	Ooh	.	.	.	.	.	.
=27	=27	=27	=27	=27	=27	=27	=27
8e]	_	1C#m	.	voice	.	44.968	C#:min(9)
8e	it's	.	.	.	.	.	.
4f#	not	.	.	.	.	.	.
4g#	real|	.	.	.	.	.	.
8r	.	.	.	.	.	.	.
8d#	if	.	.	.	.	.	.
=28	=28	=28	=28	=28	=28	=28	=28
4d#	you	1C#m	.	voice	B	46.701	C#:min(9)
4e	don't	.	.	.	.	.	.
4f#	feel	.	.	.	.	.	.
4g#	it.	.	.	.	.	.	.
=29	=29	=29	=29	=29	=29	=29	=29
*>Letter>D	*>Letter>D	*>Letter>D	*>Letter>D	*>Letter>D	*>Letter>D	*>Letter>D	*>Letter>D
*>Label>Prechorus	*>Label>Prechorus	*>Label>Prechorus	*>Label>Prechorus	*>Label>Prechorus	*>Label>Prechorus	*>Label>Prechorus	*>Label>Prechorus
4r	.	1AM	newline	voice	.	48.433	A:maj
8a	Un-	.	.	.	.	.	.
8b	_	.	.	.	.	.	.
4a	-spo-	.	.	.	.	.	.
4g#	-ken	.	.	.	.	.	.
=30	=30	=30	=30	=30	=30	=30	=30
4f#	ex-	1BM	.	voice	.	50.141	B:maj
4e	-pec-	.	.	.	.	.	.
4d#	-ta-	.	.	.	A	.	.
4e	-tions.	.	.	.	.	.	.
=31	=31	=31	=31	=31	=31	=31	=31
4r	.	1EM	.	voice	.	51.85	E:maj
4g#	I-	.	.	.	.	.	.
8f#	-de-	.	.	.	.	.	.
8f#	-als	.	.	.	.	.	.
4e	you	.	.	.	.	.	.
=32	=32	=32	=32	=32	=32	=32	=32
4d#	used	2F#m	.	voice	.	53.558	F#:min6
4c#	to	.	.	.	.	.	.
4B#	play	2G#M	.	voice	A	54.412	G#:maj
4c#	with.	.	.	.	.	.	.
=33	=33	=33	=33	=33	=33	=33	=33
8r	.	1AM	newline	voice	.	55.267	A:maj
8c#	They've	.	.	.	.	.	.
[4b	fi-	.	.	.	.	.	.
8b]	_	.	.	.	.	.	.
8a	-na-	.	.	.	.	.	.
4g#	-lly	.	.	.	.	.	.
=34	=34	=34	=34	=34	=34	=34	=34
8f#	ta-	1BM	.	voice	.	56.997	B:maj
4f#	-ken	.	.	.	.	.	.
[8g#	shape	.	.	.	A	.	.
8g#]	_	.	.	.	.	.	.
8r	.	.	.	.	.	.	.
8f#	for	.	.	.	.	.	.
[8e	us.	.	.	.	.	.	.
=35	=35	=35	=35	=35	=35	=35	=35
*>Letter>E	*>Letter>E	*>Letter>E	*>Letter>E	*>Letter>E	*>Letter>E	*>Letter>E	*>Letter>E
*>Label>Chorus	*>Label>Chorus	*>Label>Chorus	*>Label>Chorus	*>Label>Chorus	*>Label>Chorus	*>Label>Chorus	*>Label>Chorus
8e]	_	1EM	newline	voice	.	58.727	E:maj
8r	.	.	.	.	.	.	.
8.g#	Good	.	.	.	.	.	.
16g#	e-	.	.	.	.	.	.
4g#	-nough	.	.	.	.	.	.
4r	.	.	.	.	.	.	.
=36	=36	=36	=36	=36	=36	=36	=36
4r	.	1EM	.	voice	.	60.444	E:maj
4g#	for	.	.	.	.	.	.
4g#	you	.	.	.	.	.	.
4g#	is	.	.	.	.	.	.
=37	=37	=37	=37	=37	=37	=37	=37
4r	.	1C#m	.	voice	.	62.16	C#:min
8.g#	good	.	.	.	.	.	.
16g#	e-	.	.	.	.	.	.
8g#	-nough	.	.	.	.	.	.
8f#	_	.	.	.	.	.	.
4r	.	.	.	.	.	.	.
=38	=38	=38	=38	=38	=38	=38	=38
4r	.	1AM	.	voice	.	63.877	A:maj
4a	for	.	.	.	.	.	.
4a	me.	.	.	.	.	.	.
8a	It's	.	.	.	.	.	.
8r	.	.	.	.	.	.	.
=39	=39	=39	=39	=39	=39	=39	=39
4.cc#	good	1BM	newline	voice	.	65.594	B:maj
[8b	e-	.	.	.	.	.	.
16b]	_	.	.	.	.	.	.
4..b	-nough.	.	.	.	.	.	.
=40	=40	=40	=40	=40	=40	=40	=40
4r	.	1BM	.	voice	.	67.334	B:maj
8r	.	.	.	.	.	.	.
8e	It's	.	.	.	.	.	.
16g#	good	.	.	.	.	.	.
8b	e-	.	.	.	.	.	.
[16b	-nough	.	.	.	.	.	.
16b]	_	.	.	.	.	.	.
8.b	for	.	.	.	.	.	.
=41	=41	=41	=41	=41	=41	=41	=41
8r	.	1EM	newline	voice	.	69.074	E:maj/3
4b	me.	.	.	.	.	.	.
8cc#	_	.	.	.	.	.	.
4r	.	.	.	.	.	.	.
8r	.	.	.	.	.	.	.
8g#	Uh	.	.	.	.	.	.
=42	=42	=42	=42	=42	=42	=42	=42
6ee	ai-	2AM	.	voice	.	70.81	A:maj
6dd#	-yai-	.	.	.	.	.	.
6cc#	-yai	.	.	.	.	.	.
4b	Ah	2BM	.	voice	.	71.679	B:maj
4b	ah.	.	.	.	.	.	.
=43	=43	=43	=43	=43	=43	=43	=43
*>Letter>A	*>Letter>A	*>Letter>A	*>Letter>A	*>Letter>A	*>Letter>A	*>Letter>A	*>Letter>A
*>Label>Interlude	*>Label>Interlude	*>Label>Interlude	*>Label>Interlude	*>Label>Interlude	*>Label>Interlude	*>Label>Interlude	*>Label>Interlude
1r	.	1C#mm	newline	synthesizer	.	72.547	C#:min7
=44	=44	=44	=44	=44	=44	=44	=44
8r	.	1C#mm	.	synthesizer	.	74.25	C#:min7
8b	Huh	.	.	.	.	.	.
8b	Huh.	.	.	.	.	.	.
2r	.	.	.	.	.	.	.
8r	.	.	.	.	.	.	.
=45	=45	=45	=45	=45	=45	=45	=45
1r	.	1C#mm	.	synthesizer	.	75.952	C#:min7
=46	=46	=46	=46	=46	=46	=46	=46
1r	.	1C#mm	.	synthesizer	.	77.655	C#:min7
=47	=47	=47	=47	=47	=47	=47	=47
*>Letter>C	*>Letter>C	*>Letter>C	*>Letter>C	*>Letter>C	*>Letter>C	*>Letter>C	*>Letter>C
*>Label>Verse	*>Label>Verse	*>Label>Verse	*>Label>Verse	*>Label>Verse	*>Label>Verse	*>Label>Verse	*>Label>Verse
4r	.	1EM	newline	voice	.	79.358	E:maj
4g#	Now	.	.	.	.	.	.
8e	you	.	.	.	.	.	.
8g#	say	.	.	.	.	.	.
8r	.	.	.	.	.	.	.
8e	you're	.	.	.	.	.	.
=48	=48	=48	=48	=48	=48	=48	=48
8a	start-	1EM	.	voice	.	81.089	E:maj
8a	-in'	.	.	.	.	.	.
4g#	to	.	.	.	.	.	.
4f#	feel	.	.	.	.	.	.
8e	the	.	.	.	.	.	.
[8g#	push	.	.	.	.	.	.
=49	=49	=49	=49	=49	=49	=49	=49
8g#]	_	1C#m	.	voice	.	82.82	C#:min(9)
8e	_	.	.	.	.	.	.
2r	.	.	.	.	.	.	.
8B	and	.	.	.	.	.	.
[8c#	pull	.	.	.	B	.	.
=50	=50	=50	=50	=50	=50	=50	=50
4c#]	_	1C#m	.	voice	.	84.552	C#:min(9)
2r	.	.	.	.	.	.	.
4r	.	.	.	.	.	.	.
=51	=51	=51	=51	=51	=51	=51	=51
8r	.	1EM	newline	voice	.	86.283	E:maj
8g#	of	.	.	.	.	.	.
4g#	what	.	.	.	.	.	.
8g#	could	.	.	.	.	.	.
4g#	be	.	.	.	.	.	.
8e	and	.	.	.	.	.	.
=52	=52	=52	=52	=52	=52	=52	=52
4a	ne-	1EM	.	voice	.	87.995	E:maj
4g#	-ver	.	.	.	.	.	.
8f#	can.	.	.	.	.	.	.
8e	_	.	.	.	.	.	.
8r	.	.	.	.	.	.	.
8e	You	.	.	.	.	.	.
=53	=53	=53	=53	=53	=53	=53	=53
4e	mir-	1C#m	.	voice	.	89.707	C#:min(9)
4f#	-ror	.	.	.	.	.	.
4g#	me.	.	.	.	.	.	.
4r	.	.	.	.	.	.	.
=54	=54	=54	=54	=54	=54	=54	=54
8d#	stum-	1C#m	.	voice	.	91.419	C#:min(9)
8d#	-bl-	.	.	.	.	.	.
4d#	-in'	.	.	.	.	.	.
4f#	through	.	.	.	B	.	.
4g#	the	.	.	.	.	.	.
=55	=55	=55	=55	=55	=55	=55	=55
*>Letter>D	*>Letter>D	*>Letter>D	*>Letter>D	*>Letter>D	*>Letter>D	*>Letter>D	*>Letter>D
*>Label>Prechorus	*>Label>Prechorus	*>Label>Prechorus	*>Label>Prechorus	*>Label>Prechorus	*>Label>Prechorus	*>Label>Prechorus	*>Label>Prechorus
4r	.	1AM	newline	voice	.	93.131	A:maj
8a	old	.	.	.	.	.	.
8b	_	.	.	.	.	.	.
4a	fash-	.	.	.	.	.	.
4g#	-ioned	.	.	.	.	.	.
=56	=56	=56	=56	=56	=56	=56	=56
6r	.	1BM	.	voice	.	94.864	B:maj
6f#	sup-	.	.	.	.	.	.
6e	-er-	.	.	.	.	.	.
4d#	-sti-	.	.	.	.	.	.
4e	-tions	.	.	.	.	.	.
=57	=57	=57	=57	=57	=57	=57	=57
4r	.	1EM	.	voice	.	96.597	E:maj
4g#	I	.	.	.	.	.	.
4f#	find	.	.	.	.	.	.
4e	to	.	.	.	.	.	.
=58	=58	=58	=58	=58	=58	=58	=58
4d#	hard	2F#m	.	voice	.	98.329	F#:min6
4c#	to	.	.	.	.	.	.
8B#	break.	2G#M	.	voice	A	99.195	G#:maj
4r	.	.	.	.	.	.	.
8r	.	.	.	.	.	.	.
=59	=59	=59	=59	=59	=59	=59	=59
8r	.	1AM	newline	voice	.	100.062	A:maj
8g#	Oh	.	.	.	.	.	.
8.b	may-	.	.	.	.	.	.
[16b	-be	.	.	.	.	.	.
8b]	_	.	.	.	.	.	.
4b	you're	.	.	.	.	.	.
[8b	out	.	.	.	.	.	.
=60	=60	=60	=60	=60	=60	=60	=60
8b]	_	1BM	.	voice	.	101.781	B:maj
4b	of	.	.	.	.	.	.
8b	place.	.	.	.	A	.	.
8cc#	_	.	.	.	.	.	.
8g#	_	.	.	.	.	.	.
4b	What's	.	.	.	.	.	.
=61	=61	=61	=61	=61	=61	=61	=61
*>Letter>E	*>Letter>E	*>Letter>E	*>Letter>E	*>Letter>E	*>Letter>E	*>Letter>E	*>Letter>E
*>Label>Chorus	*>Label>Chorus	*>Label>Chorus	*>Label>Chorus	*>Label>Chorus	*>Label>Chorus	*>Label>Chorus	*>Label>Chorus
4r	.	1EM	newline	voice	.	103.5	E:maj
8.b	Good	.	.	.	.	.	.
16b	e-	.	.	.	.	.	.
8b	-nough	.	.	.	.	.	.
8g#	_	.	.	.	.	.	.
4r	.	.	.	.	.	.	.
=62	=62	=62	=62	=62	=62	=62	=62
4r	.	1EM	.	voice	.	105.223	E:maj
4g#	for	.	.	.	.	.	.
4g#	you	.	.	.	.	.	.
4g#	is	.	.	.	.	.	.
=63	=63	=63	=63	=63	=63	=63	=63
4r	.	1C#m	.	voice	.	106.946	C#:min
8.g#	good	.	.	.	.	.	.
16g#	e-	.	.	.	.	.	.
8g#	-nough	.	.	.	.	.	.
8f#	_	.	.	.	.	.	.
4r	.	.	.	.	.	.	.
=64	=64	=64	=64	=64	=64	=64	=64
4r	.	1AM	.	voice	.	108.67	A:maj
4a	for	.	.	.	.	.	.
4a	me.	.	.	.	.	.	.
8a	It's	.	.	.	.	.	.
8r	.	.	.	.	.	.	.
=65	=65	=65	=65	=65	=65	=65	=65
4.cc#	good	1BM	newline	voice	.	110.393	B:maj
[8b	e-	.	.	.	.	.	.
8b]	_	.	.	.	.	.	.
4.b	-nough.	.	.	.	.	.	.
=66	=66	=66	=66	=66	=66	=66	=66
4r	.	1BM	.	voice	.	112.093	B:maj
8r	.	.	.	.	.	.	.
8e	It's	.	.	.	.	.	.
16g#	good	.	.	.	.	.	.
8b	e-	.	.	.	.	.	.
[16b	-nough	.	.	.	.	.	.
8b]	_	.	.	.	.	.	.
[8b	for	.	.	.	.	.	.
=67	=67	=67	=67	=67	=67	=67	=67
8b]	_	1EM	newline	voice	.	113.793	E:maj/3
4b	me.	.	.	.	.	.	.
8cc#	_	.	.	.	.	.	.
4r	.	.	.	.	.	.	.
8r	.	.	.	.	.	.	.
8g#	Uh	.	.	.	.	.	.
=68	=68	=68	=68	=68	=68	=68	=68
6ee	ai-	2AM	.	voice	.	115.528	A:maj
6dd#	-yai-	.	.	.	.	.	.
6cc#	-yai	.	.	.	.	.	.
4b	yai	2BM	.	voice	.	116.396	B:maj
4b	yai.	.	.	.	.	.	.
=69	=69	=69	=69	=69	=69	=69	=69
*>Letter>E	*>Letter>E	*>Letter>E	*>Letter>E	*>Letter>E	*>Letter>E	*>Letter>E	*>Letter>E
*>Label>Chorus	*>Label>Chorus	*>Label>Chorus	*>Label>Chorus	*>Label>Chorus	*>Label>Chorus	*>Label>Chorus	*>Label>Chorus
8a	_	1EM	newline	voice	.	117.263	E:maj
[4.g#	_	.	.	.	.	.	.
8.g#]	_	.	.	.	.	.	.
16f#	_	.	.	.	.	.	.
4r	.	.	.	.	.	.	.
=70	=70	=70	=70	=70	=70	=70	=70
4r	.	1EM	.	voice	.	118.983	E:maj
4g#	for	.	.	.	.	.	.
8g#	you	.	.	.	.	.	.
4.b	is	.	.	.	.	.	.
=71	=71	=71	=71	=71	=71	=71	=71
4.cc#	good	1C#m	.	voice	.	120.702	C#:min
8b	e-	.	.	.	.	.	.
[4b	-nough	.	.	.	.	.	.
8.b]	_	.	.	.	.	.	.
16a	_	.	.	.	.	.	.
=72	=72	=72	=72	=72	=72	=72	=72
4r	.	1AM	.	voice	.	122.422	A:maj
4a	for	.	.	.	.	.	.
4a	me.	.	.	.	.	.	.
8a	It's	.	.	.	.	.	.
[8cc#	good.	.	.	.	.	.	.
=73	=73	=73	=73	=73	=73	=73	=73
8cc#]	_	1BM	newline	voice	.	124.141	B:maj
4r	.	.	.	.	.	.	.
8a	It's	.	.	.	.	.	.
4cc#	good	.	.	.	.	.	.
8b	e-	.	.	.	.	.	.
[8b	-nough.	.	.	.	.	.	.
=74	=74	=74	=74	=74	=74	=74	=74
8b]	_	1BM	.	voice	.	125.861	B:maj
4r	.	.	.	.	.	.	.
8e	It's	.	.	.	.	.	.
16g#	good	.	.	.	.	.	.
8b	e-	.	.	.	.	.	.
[16b	-nough	.	.	.	.	.	.
16b]	_	.	.	.	.	.	.
[8.b	for	.	.	.	.	.	.
=75	=75	=75	=75	=75	=75	=75	=75
8b]	_	1EM	newline	voice	.	127.581	E:maj/3
4b	me.	.	.	.	.	.	.
8cc#	_	.	.	.	.	.	.
2r	.	.	.	.	.	.	.
=76	=76	=76	=76	=76	=76	=76	=76
6ee	ai-	2AM	.	voice	.	129.318	A:maj
6dd#	-yai-	.	.	.	.	.	.
6cc#	-yai	.	.	.	.	.	.
8b	yai	2BM	.	voice	.	130.186	B:maj
[4.cc#	Yeah.	.	.	.	.	.	.
=77	=77	=77	=77	=77	=77	=77	=77
*>Letter>A	*>Letter>A	*>Letter>A	*>Letter>A	*>Letter>A	*>Letter>A	*>Letter>A	*>Letter>A
*>Label>Interlude	*>Label>Interlude	*>Label>Interlude	*>Label>Interlude	*>Label>Interlude	*>Label>Interlude	*>Label>Interlude	*>Label>Interlude
8cc#]	_	1C#mm	newline	synthesizer	.	131.055	C#:min7
2r	.	.	.	.	.	.	.
4r	.	.	.	.	.	.	.
8r	.	.	.	.	.	.	.
=78	=78	=78	=78	=78	=78	=78	=78
1r	.	1C#mm	.	synthesizer	.	132.765	C#:min7
=79	=79	=79	=79	=79	=79	=79	=79
1r	.	1C#mm	.	synthesizer	.	134.476	C#:min7
=80	=80	=80	=80	=80	=80	=80	=80
1r	.	1C#mm	.	synthesizer	.	136.186	C#:min7
=81	=81	=81	=81	=81	=81	=81	=81
*>Letter>B	*>Letter>B	*>Letter>B	*>Letter>B	*>Letter>B	*>Letter>B	*>Letter>B	*>Letter>B
*>Label>Instrumental	*>Label>Instrumental	*>Label>Instrumental	*>Label>Instrumental	*>Label>Instrumental	*>Label>Instrumental	*>Label>Instrumental	*>Label>Instrumental
1r	.	1C#mm	newline	.	.	137.896	C#:min7
=82	=82	=82	=82	=82	=82	=82	=82
1r	.	1C#mm	.	.	.	139.617	C#:min7
=83	=83	=83	=83	=83	=83	=83	=83
1r	.	1C#mm	.	.	.	141.338	C#:min7
=84	=84	=84	=84	=84	=84	=84	=84
1r	.	1C#mm	.	.	.	143.058	C#:min7
=85	=85	=85	=85	=85	=85	=85	=85
1r	.	1C#Mm	newline	.	.	144.779	C#:7(#9)
=86	=86	=86	=86	=86	=86	=86	=86
1r	.	1C#Mm	.	.	.	146.503	C#:7(#9)
=87	=87	=87	=87	=87	=87	=87	=87
1r	.	1C#Mm	.	.	.	148.228	C#:7(#9)
=88	=88	=88	=88	=88	=88	=88	=88
1r	.	1C#Mm	.	.	.	149.952	C#:7(#9)
=89	=89	=89	=89	=89	=89	=89	=89
1r	.	1C#Mm	newline	synthesizer	.	151.676	C#:7(#9)
=90	=90	=90	=90	=90	=90	=90	=90
1r	.	1C#Mm	.	synthesizer	.	153.388	C#:7(#9)
=91	=91	=91	=91	=91	=91	=91	=91
1r	.	1C#Mm	.	synthesizer	.	155.1	C#:7(#9)
=92	=92	=92	=92	=92	=92	=92	=92
1r	.	1N	.	synthesizer	.	156.813	N.C.
=93	=93	=93	=93	=93	=93	=93	=93
*>Letter>D	*>Letter>D	*>Letter>D	*>Letter>D	*>Letter>D	*>Letter>D	*>Letter>D	*>Letter>D
*>Label>Prechorus	*>Label>Prechorus	*>Label>Prechorus	*>Label>Prechorus	*>Label>Prechorus	*>Label>Prechorus	*>Label>Prechorus	*>Label>Prechorus
4r	.	1AM	newline	voice	.	158.525	A:maj
8a	old	.	.	.	.	.	.
8b	_	.	.	.	.	.	.
4a	fash-	.	.	.	.	.	.
4g#	-ioned	.	.	.	.	.	.
=94	=94	=94	=94	=94	=94	=94	=94
6r	.	1BM	.	voice	.	160.255	B:maj
6f#	sup-	.	.	.	.	.	.
6e	-er-	.	.	.	.	.	.
4d#	-sti-	.	.	.	.	.	.
4e	-tion	.	.	.	.	.	.
=95	=95	=95	=95	=95	=95	=95	=95
4r	.	1EM	.	voice	.	161.985	E:maj
4g#	I	.	.	.	.	.	.
4f#	find	.	.	.	.	.	.
4e	to	.	.	.	.	.	.
=96	=96	=96	=96	=96	=96	=96	=96
4d#	hard	2F#m	.	voice	.	163.715	F#:min6
8c#	to	.	.	.	.	.	.
[8B#	break.	.	.	.	A	.	.
4B#]	_	2G#M	.	voice	.	164.58	G#:maj
4r	.	.	.	.	.	.	.
=97	=97	=97	=97	=97	=97	=97	=97
8r	.	1AM	newline	voice	.	165.445	A:maj
8g#	Hey	.	.	.	.	.	.
8.b	may-	.	.	.	.	.	.
[16b	-be	.	.	.	.	.	.
8b]	_	.	.	.	.	.	.
4b	you're	.	.	.	.	.	.
[8b	out	.	.	.	.	.	.
=98	=98	=98	=98	=98	=98	=98	=98
8b]	_	1BM	.	voice	.	167.162	B:maj
4b	of	.	.	.	.	.	.
8b	place.	.	.	.	A	.	.
8cc#	_	.	.	.	.	.	.
8g#	_	.	.	.	.	.	.
4b	What's	.	.	.	.	.	.
=99	=99	=99	=99	=99	=99	=99	=99
*>Letter>E	*>Letter>E	*>Letter>E	*>Letter>E	*>Letter>E	*>Letter>E	*>Letter>E	*>Letter>E
*>Label>Chorus	*>Label>Chorus	*>Label>Chorus	*>Label>Chorus	*>Label>Chorus	*>Label>Chorus	*>Label>Chorus	*>Label>Chorus
4r	.	1EM	newline	voice	.	168.879	E:maj
8.b	Good	.	.	.	.	.	.
16b	e-	.	.	.	.	.	.
8b	-nough	.	.	.	.	.	.
8g#	_	.	.	.	.	.	.
4r	.	.	.	.	.	.	.
=100	=100	=100	=100	=100	=100	=100	=100
4r	.	1EM	.	voice	.	170.598	E:maj
4g#	for	.	.	.	.	.	.
4g#	you	.	.	.	.	.	.
4g#	is	.	.	.	.	.	.
=101	=101	=101	=101	=101	=101	=101	=101
4r	.	1C#m	.	voice	.	172.317	C#:min
8.g#	good	.	.	.	.	.	.
16g#	e-	.	.	.	.	.	.
8g#	-nough	.	.	.	.	.	.
8f#	_	.	.	.	.	.	.
4r	.	.	.	.	.	.	.
=102	=102	=102	=102	=102	=102	=102	=102
4r	.	1AM	.	voice	.	174.036	A:maj
4a	for	.	.	.	.	.	.
4a	me.	.	.	.	.	.	.
8a	It's	.	.	.	.	.	.
[8cc#	good	.	.	.	.	.	.
=103	=103	=103	=103	=103	=103	=103	=103
4.cc#]	_	1BM	newline	voice	.	175.756	B:maj
8b	e-	.	.	.	.	.	.
2b	-nough.	.	.	.	.	.	.
=104	=104	=104	=104	=104	=104	=104	=104
4r	.	1BM	.	voice	.	177.472	B:maj
8r	.	.	.	.	.	.	.
8e	It's	.	.	.	.	.	.
16g#	good	.	.	.	.	.	.
8b	e-	.	.	.	.	.	.
[16b	-nough	.	.	.	.	.	.
16b]	_	.	.	.	.	.	.
[8.b	for	.	.	.	.	.	.
=105	=105	=105	=105	=105	=105	=105	=105
8b]	_	1EM	newline	voice	.	179.189	E:maj/3
4b	me.	.	.	.	.	.	.
8cc#	_	.	.	.	.	.	.
4r	.	.	.	.	.	.	.
8r	.	.	.	.	.	.	.
8g#	Uh	.	.	.	.	.	.
=106	=106	=106	=106	=106	=106	=106	=106
6ee	ai-	2AM	.	voice	.	180.905	A:maj
6dd#	-yai-	.	.	.	.	.	.
6cc#	-yai	.	.	.	.	.	.
4b	yai	2BM	.	voice	.	181.763	B:maj
8.b	yai.	.	.	.	.	.	.
16a	_	.	.	.	.	.	.
=107	=107	=107	=107	=107	=107	=107	=107
*>Letter>E	*>Letter>E	*>Letter>E	*>Letter>E	*>Letter>E	*>Letter>E	*>Letter>E	*>Letter>E
*>Label>Chorus	*>Label>Chorus	*>Label>Chorus	*>Label>Chorus	*>Label>Chorus	*>Label>Chorus	*>Label>Chorus	*>Label>Chorus
[4g#	_	1EM	newline	voice	.	182.621	E:maj
8.g#]	_	.	.	.	.	.	.
16f#	_	.	.	.	.	.	.
2r	.	.	.	.	.	.	.
=108	=108	=108	=108	=108	=108	=108	=108
4r	.	1EM	.	voice	.	184.348	E:maj
4g#	for	.	.	.	.	.	.
4g#	you	.	.	.	.	.	.
4b	is	.	.	.	.	.	.
=109	=109	=109	=109	=109	=109	=109	=109
4.cc#	good	1C#m	.	voice	.	186.075	C#:min
8b	e-	.	.	.	.	.	.
[4b	-nough	.	.	.	.	.	.
8b]	_	.	.	.	.	.	.
16a	_	.	.	.	.	.	.
16g#	_	.	.	.	.	.	.
=110	=110	=110	=110	=110	=110	=110	=110
4r	.	1AM	.	voice	.	187.802	A:maj
4a	for	.	.	.	.	.	.
4a	me.	.	.	.	.	.	.
8a	It's	.	.	.	.	.	.
[8cc#	good.	.	.	.	.	.	.
=111	=111	=111	=111	=111	=111	=111	=111
8cc#]	_	1BM	newline	voice	.	189.529	B:maj
4r	.	.	.	.	.	.	.
8a	It's	.	.	.	.	.	.
4cc#	good	.	.	.	.	.	.
8b	e-	.	.	.	.	.	.
[8b	-nough.	.	.	.	.	.	.
=112	=112	=112	=112	=112	=112	=112	=112
8b]	_	1BM	.	voice	.	191.257	B:maj
4r	.	.	.	.	.	.	.
8e	It's	.	.	.	.	.	.
16g#	good	.	.	.	.	.	.
8b	e-	.	.	.	.	.	.
[16b	-nough	.	.	.	.	.	.
8b]	_	.	.	.	.	.	.
[8b	for	.	.	.	.	.	.
=113	=113	=113	=113	=113	=113	=113	=113
8b]	_	1EM	newline	voice	.	192.984	E:maj/3
4b	me.	.	.	.	.	.	.
8cc#	_	.	.	.	.	.	.
2r	.	.	.	.	.	.	.
=114	=114	=114	=114	=114	=114	=114	=114
6ee	ai-	2AM	.	voice	.	194.682	A:maj
6dd#	-yai-	.	.	.	.	.	.
6cc#	-yai	.	.	.	.	.	.
4b	yai	2BM	.	voice	.	195.531	B:maj
[4b	yai.	.	.	.	.	.	.
=115	=115	=115	=115	=115	=115	=115	=115
*>Letter>E	*>Letter>E	*>Letter>E	*>Letter>E	*>Letter>E	*>Letter>E	*>Letter>E	*>Letter>E
*>Label>Chorus	*>Label>Chorus	*>Label>Chorus	*>Label>Chorus	*>Label>Chorus	*>Label>Chorus	*>Label>Chorus	*>Label>Chorus
8b]	_	1EM	newline	voice	.	196.379	E:maj
8a	_	.	.	.	.	.	.
[4g#	_	.	.	.	.	.	.
8.g#]	_	.	.	.	.	.	.
16f#	_	.	.	.	.	.	.
4r	.	.	.	.	.	.	.
=116	=116	=116	=116	=116	=116	=116	=116
6r	.	1EM	.	voice	.	198.109	E:maj
6e	Woh	.	.	.	.	.	.
6f#	woh	.	.	.	.	.	.
6g#	woh	.	.	.	.	.	.
[3b	woh	.	.	.	.	.	.
=117	=117	=117	=117	=117	=117	=117	=117
4b]	_	1C#m	.	voice	.	199.839	C#:min
8.b	Woh.	.	.	.	.	.	.
16f#	_	.	.	.	.	.	.
16g#	_	.	.	.	.	.	.
16f#	_	.	.	.	.	.	.
4r	.	.	.	.	.	.	.
8r	.	.	.	.	.	.	.
=118	=118	=118	=118	=118	=118	=118	=118
2r	.	1AM	.	voice	.	201.568	A:maj
8r	.	.	.	.	.	.	.
4g#	Ah	.	.	.	.	.	.
[8f#	ha.	.	.	.	.	.	.
=119	=119	=119	=119	=119	=119	=119	=119
2f#]	_	1BM	newline	voice	.	203.298	B:maj
2r	.	.	.	.	.	.	.
=120	=120	=120	=120	=120	=120	=120	=120
8r	.	1BM	.	voice	.	205.03	B:maj
8b	Huh.	.	.	.	.	.	.
4r	.	.	.	.	.	.	.
6b	uh	.	.	.	.	.	.
6dd#	yeah	.	.	.	.	.	.
6b	_	.	.	.	.	.	.
=121	=121	=121	=121	=121	=121	=121	=121
8r	.	1EM	newline	voice	.	206.763	E:maj/3
8dd#	Yeah	.	.	.	.	.	.
8.dd#	yeah	.	.	.	.	.	.
[16cc#	yeah	.	.	.	.	.	.
8cc#]	_	.	.	.	.	.	.
8b	yeah.	.	.	.	.	.	.
4r	.	.	.	.	.	.	.
=122	=122	=122	=122	=122	=122	=122	=122
8r	.	2AM	.	voice	.	208.478	A:maj
8ee	Yeah	.	.	.	.	.	.
8dd#	yeah	.	.	.	.	.	.
8cc#	yeah	.	.	.	.	.	.
8b	yeah	2BM	.	voice	.	209.335	B:maj
4.cc#	yeah.	.	.	.	.	.	.
=123	=123	=123	=123	=123	=123	=123	=123
*>Letter>A	*>Letter>A	*>Letter>A	*>Letter>A	*>Letter>A	*>Letter>A	*>Letter>A	*>Letter>A
*>Label>Coda	*>Label>Coda	*>Label>Coda	*>Label>Coda	*>Label>Coda	*>Label>Coda	*>Label>Coda	*>Label>Coda
1r	.	1C#m	newline	synthesizer	.	210.193	C#:5(b7)
=124	=124	=124	=124	=124	=124	=124	=124
1r	.	1C#m	.	synthesizer	.	211.929	C#:5(b7)
=125	=125	=125	=125	=125	=125	=125	=125
1r	.	1C#m	.	synthesizer	.	213.666	C#:5(b7)
r;	.	1r;	.	r	.	216.271	N.C.
r;	.	1r;	.	r	.	218.384	N.C.
*-	*-	*-	*-	*-	*-	*-	*-
!!!BillboardChartDate: 1985/06/22
!!!BillboardPeak: 10
!!!BillboardWeeksOnChart: 15
!!!COC: Cyndi Lauper
!!!ENC: Nathaniel Condit-Schultz
!!!EST: Awating manual error checking and editing.
!!!OTL: The Goonies R Good Enough
!!!RDF**chordsym: original McGill chord annotation + (implied pitch class set, with bass pitch in first position)
!!!RDF**harmony: **recip + pitch class of root + harmonic quality
!!!RDF**leadinstrument: original McGill primary instrumentation annotation
!!!RDF**phrase: newline = linebreak in original McGill transcription
!!!RDF**timestamp: McGill audio timestamp in seconds
!!!RDT: 2017/01/12/
!!!SampleActualRank: 19
!!!SampleID#: 0401
!!!SampleTargetRank: 17
